X:1
T:Liebesgarten
T:Willkommen
T:Josef Rheinberger
T:Text: Franziska von Hoffnaaß
T:Willkommen
T:Nr 2 aus: Liebesgarten, Op. 80
T:CPDL - Creative Commons Attribution Non Commercial 3.0
T:CPDL - Creative Commons Attribution Non Commercial 3.0
T:CPDL - Creative Commons Attribution Non Commercial 3.0
T:CPDL - Creative Commons Attribution Non Commercial 3.0
T:CPDL - Creative Commons Attribution Non Commercial 3.0
C:Josef Rheinberger
Z:Franziska von Hoffnaaß
Z:CPDL - Creative Commons Attribution Non Commercial 3.0
%%score [ 1 2 3 4 ]
L:1/8
Q:1/4=54
M:4/4
K:Db
V:1 treble nm="S"
V:2 treble nm="A"
V:3 treble-8 nm="T"
V:4 bass nm="B"
V:1
"^Andante molto" z4 |!p! d2 A2 F3 F | E2 A2 (A2 G2) | ddBG G2 F2 |!<(! EF=GA c2!<)! B!p!B | %5
w: |Lieb- lich rauscht durch|Saat und Baum _|sanf- tes Früh- lings- we- hen,|sanf- tes Früh- lings- we- hen. Er-|
!<(! c/B/ A2 c e/d/ c2 e!<)! |!f! gfed c/B/ A/B/ c/B/ c/d/ | e/d/ c/d/ e/d/ e/f/!<(! (g3 =g!<)! | %8
w: wa- * che, er- wa- * che, er-|wach aus ban- gem Traum, * lass * Blüt * und *|Hoff- * nung * neu * er- * ste- *|
 a)"^dim."fdB!p! A4 | A!pp!A BC D3 z | z4!p! d2 A2 | F3 F E2 A2 | (A2 G2)!<(! dcde!<)! | %13
w: * hen, neu er- ste-|hen, er- ste- * hen!|Herz, ver-|giss der frost- gen|Pein, * Trä- nen nicht mehr|
!>(! f>e!>)! d2!<(! d=cde!<)! | f>e d2!f! .d.g.g.=f | f>e e2 ed"^dim."cB | =A>c c2 z!p! c2 c | %17
w: from- * men, Trä- nen nicht mehr|from- * men, Schwal- be pickt ans|Fens- ter dein, sag ihr "froh Will-|kom- * men, froh Will-|
 f2 c2 z!<(! c2 c | c4 c2!<)! z2 | z4!mf! gfed | c/B/ A/B/ c/B/ c/d/!<(! (e/d/c/d/ e/f/g/=g/!<)! | %21
w: kom- men, froh Will-|kom- men!"|Schwal- be pickt ans|Fens- * ter * dein, * o * sag _ _ _ _ _ _ _|
!>(! a)fd!>)!B!p! A4 | A!pp![Q:1/4=50]"^ritardando"A BC !fermata!D3 z |] %23
w: _ ihr "froh Will- kom-|men, Will- kom- * men"!|
V:2
 z4 |!p! D3 D D3 D | D2 C2 D4 | D3 D D2 D2 |!<(! D6!<)! D!p!D |!<(! C/D/ E2 E A A2 A!<)! | %6
w: |Lieb- lich rauscht durch|Saat und Baum|sanf- tes Früh- lings-|we- hen. Er-|wa- * che, er- wa- che, er-|
!f! BAGF EAGF | EAAA A4 | A2 z2 z!p! F GC | D!pp!F GA, A,3 z | z4!p! D3 D | D3 D D3 C | %12
w: wach aus ban- gem Traum, lass Blüt und|Hoff- nung neu er- ste-|hen, er- ste- *|hen, er- ste- * hen!|Herz, ver-|giss der frost- gen|
 D4!<(! GGGG!<)! |!>(! A>G!>)! F2!<(! GGB=A!<)! | A>G F2!f! G2 A2 | .B.=A.B.G E2"^dim." =E2 | %16
w: Pein, Trä- nen nicht mehr|from- * men, Trä- nen nicht mehr|from- * men, Schwal- be|pickt ans Fens- ter dein, "Will-|
 F2 =A2 z!p! B2 B | =A2 A2 z!<(! B2 B | (=A3 _A) A2!<)! z2 |!mf! BAGF E/D/ C/D/ E/D/ E/F/ | %20
w: kom- men, froh Will-|kom- men, froh Will-|kom- * men!"|Schwal- be pickt ans Fens- * ter * dein, * o *|
 G4 C2 z2 | z4 z!p! F GC | D!pp!F GA, !fermata!A,3 z |] %23
w: sag ihr:|"Will- kom- *|men, Will- kom- * men"!|
V:3
!p! d2 A2 | F3 F A4- | A2 E2 D4 | B3 B A2 A2 |!<(! (B3 A =G2)!<)! G!p!G | %5
w: Lieb- lich|rauscht durch Saat|_ und Baum|sanf- tes Früh- lings-|we- * * hen. Er-|
!<(! A/B/ c2 A c/d/ e2 c!<)! |!f! cd A z/ A/ !^!g!^!f!^!ed |!<(! c/B/ A/B/ c/B/ c/d/ e3!<)! =e | %8
w: wa- * che, er- wa- * che, er-|wa- * che, er- wach aus ban- gem|Traum, * lass * Blüt * und * Hoff- nung|
 f2 z2 z!p! D EG | F!pp!F EG F3 z | z4!p! A3 A | A2 =G2 _G2 E2 | D4!<(! BBBB!<)! | %13
w: neu er- ste- *|hen, er- ste- * hen!|Herz, ver-|giss der frost- gen|Pein, Trä- nen nicht mehr|
!>(! _c2!>)! A2!<(! ddd=c!<)! | _c2 A2!f! d2 =c2 | B3"^dim." B B2 B2 | %16
w: from- men, Trä- nen nicht mehr|from- men, Schwal- be|pickt ans Fens- ter|
!p!!<(! F=Acf!<)!!>(! f>=e e2!>)! | F=Acf f>!<(!=e ee | (f3!<)! _g) g2 z2 | %19
w: sag ihr "froh Will- kom- * men",|sag ihr "froh Will- kom- * men, Will-|kom- * men"!|
!mf! gfed c/B/ A/B/ c/B/ c/d/ |!<(! e/d/ c/d/ e/d/ e/f/!<)!!>(! g2!>)! c z | (d2 d) z z!p! D EG | %22
w: Schwal- be pickt ans Fens- * ter * dein, * o *|sag * ihr * "froh * Will- * kom- men"!|Sag: _ "Will- kom- *|
 F!pp!F EG !fermata!F3 z |] %23
w: men, Will- kom- * men"!|
V:4
 z4 |!p! A,,3 A,, A,,2 A,,2 | A,,2 A,,2 B,,4 | z4!<(! A,,D,F,A,!<)! | %4
w: |Lieb- lich rauscht durch|Saat und Baum|sanf- tes Früh- lings-|
!<(! (A,2 =G,F,)!<)! E,3!p! E, |!<(! A,2 A,,>A,, A,2 A,,>!<)!!f!A,, | A,4 A,,3 z | %7
w: we- * * hen. Er-|wa- che, er- wa- che, er-|wa- che!|
 z!<(! A,A,A,!<)! C>!>(!B, A,>G,!>)! | F,2 z2 z!p! D, A,,2 | D,!pp!D, A,,2 D,3 z | %10
w: Lass Blüt und Hoff- nung neu er-|stehn, er- ste-|hen, er- ste- hen!|
"^dolce"!p! D,2 A,,2 F,,3 F,, | A,,6 A,,2 | B,,4 z4 |!<(! D,F,A,!<)!_C!>(! B,>A, G,2!>)! | %14
w: Herz, ver- giss der|frost- gen|Pein,|Trä- nen nicht mehr from- * men,|
!<(! D,F,A,!<)!_C!f! B,2 A,2 | G,3"^dim." G, G,2 G,2 |!p! F,2 F,2 z _G,2 G, | %17
w: Trä- nen nicht mehr from- men,|Schwal- be pickt ans|Fens- ter, "froh Will-|
 F,2 F,2 z!<(! G,2 G, | (F,3 E,) E,2!<)! z2 |!p! A,3 A, A,2 A,2 |!<(! A,6!<)!!>(! G,2!>)! | %21
w: kom- men, froh Will-|kom- * men"!|Sag ihr "froh Will-|kom- men"!|
 (F,2 F,) z z!p! D, A,,2 |"^17.7.1857 / 10.5.1874" D,!pp!D, A,,2 !fermata!D,3 z |] %23
w: Sag: _ "Will- kom-|men, Will- kom- men"!|

